dist/assets/images/myProfile/edit.svg

<svg width="12" height="12" viewBox="0 0 12 12" fill="none" xmlns="http://www.w3.org/2000/svg">
<path id="Combined Shape Copy 5" fill-rule="evenodd" clip-rule="evenodd" d="M11.8485 1.86896L10.1311 0.151537C9.929 -0.0505124 9.58805 -0.0505124 9.386 0.151537L8.33787 1.19967L10.8003 3.66215L11.8485 2.61402C12.0505 2.41197 12.0505 2.07101 11.8485 1.86896ZM1.9399 7.60007L7.53856 2.00139L9.99411 4.45695L4.39545 10.0556L1.9399 7.60007ZM0.243267 9.4586C0.255895 9.33232 0.306407 9.2313 0.394803 9.1429L1.12723 8.41047L3.5897 10.8729L2.85727 11.6054C2.76887 11.6938 2.65522 11.7443 2.54157 11.7569L0.596852 11.9968C0.255895 12.0347 -0.0345503 11.7443 0.00333383 11.4033L0.243267 9.4586Z" fill="#2E1AAD"/>
</svg>

<svg width="12" height="12" fill="none" xmlns="http://www.w3.org/2000/svg"><path fill-rule="evenodd" clip-rule="evenodd" d="M11.848 1.869L10.131.152a.534.534 0 00-.745 0L8.338 1.2 10.8 3.662l1.048-1.048a.534.534 0 000-.745zM1.94 7.6l5.599-5.599 2.455 2.456-5.599 5.599L1.94 7.6zM.243 9.46a.498.498 0 01.152-.316l.732-.733 2.463 2.463-.733.732a.53.53 0 01-.315.152l-1.945.24a.539.539 0 01-.594-.594l.24-1.944z" fill="#2E1AAD"/></svg>
